src/lib/packages/icons/src/assets/line/ethereum-square.svg

<svg width="24" height="24" viewBox="0 0 24 24" fill="none" xmlns="http://www.w3.org/2000/svg">
<path d="M17.625 2.25H6.375C3.715 2.25 2.25 3.715 2.25 6.375V17.625C2.25 20.285 3.715 21.75 6.375 21.75H17.625C20.285 21.75 21.75 20.285 21.75 17.625V6.375C21.75 3.715 20.285 2.25 17.625 2.25ZM20.25 17.625C20.25 19.465 19.465 20.25 17.625 20.25H6.375C4.535 20.25 3.75 19.465 3.75 17.625V6.375C3.75 4.535 4.535 3.75 6.375 3.75H17.625C19.465 3.75 20.25 4.535 20.25 6.375V17.625ZM16.715 12.4659C16.712 12.4559 16.715 12.447 16.711 12.437C16.706 12.423 16.695 12.413 16.689 12.399C16.678 12.37 16.671 12.34 16.656 12.313L13.135 5.92102C12.906 5.50702 12.471 5.25 11.998 5.25C11.525 5.25 11.09 5.50702 10.861 5.92102L7.34003 12.313C7.32503 12.34 7.31901 12.371 7.30701 12.399C7.30101 12.413 7.28997 12.423 7.28497 12.437C7.28197 12.447 7.28401 12.4559 7.28101 12.4659C7.25601 12.5509 7.24402 12.637 7.24902 12.724C7.25002 12.738 7.25502 12.751 7.25702 12.765C7.26602 12.837 7.286 12.906 7.315 12.973C7.325 12.997 7.336 13.018 7.349 13.04C7.361 13.061 7.36698 13.083 7.38098 13.103L10.932 18.193C11.174 18.542 11.572 18.749 11.996 18.749C12.42 18.749 12.818 18.541 13.059 18.194L16.611 13.103C16.625 13.083 16.631 13.061 16.643 13.04C16.656 13.018 16.667 12.996 16.677 12.973C16.706 12.906 16.726 12.837 16.735 12.765C16.737 12.751 16.742 12.738 16.743 12.724C16.753 12.637 16.74 12.5509 16.715 12.4659ZM12 6.96704L14.909 12.248L12 13.217L9.091 12.248L12 6.96704ZM12 17.098L9.90997 14.1021L11.763 14.719C11.84 14.745 11.92 14.7581 12 14.7581C12.08 14.7581 12.16 14.745 12.237 14.719L14.09 14.1021L12 17.098Z" fill="currentColor"/>
</svg>

<svg xmlns="http://www.w3.org/2000/svg" width="24" height="24" fill="none"><path fill="currentColor" d="M17.625 2.25H6.375c-2.66 0-4.125 1.465-4.125 4.125v11.25c0 2.66 1.465 4.125 4.125 4.125h11.25c2.66 0 4.125-1.465 4.125-4.125V6.375c0-2.66-1.465-4.125-4.125-4.125Zm2.625 15.375c0 1.84-.785 2.625-2.625 2.625H6.375c-1.84 0-2.625-.785-2.625-2.625V6.375c0-1.84.785-2.625 2.625-2.625h11.25c1.84 0 2.625.785 2.625 2.625v11.25Zm-3.535-5.16c-.003-.01 0-.018-.004-.028-.005-.014-.016-.024-.022-.038-.011-.029-.018-.059-.033-.086l-3.521-6.392a1.3 1.3 0 0 0-2.274 0L7.34 12.313c-.015.027-.021.058-.033.086-.006.014-.017.024-.022.038-.003.01-.001.019-.004.029a.757.757 0 0 0-.032.258c.001.014.006.027.008.041a.758.758 0 0 0 .092.275c.012.021.018.043.032.063l3.551 5.09a1.294 1.294 0 0 0 2.127.001l3.552-5.091c.014-.02.02-.042.032-.063a.758.758 0 0 0 .092-.275c.002-.014.007-.027.008-.041a.648.648 0 0 0-.028-.258ZM12 6.968l2.909 5.281-2.909.969-2.909-.969L12 6.967Zm0 10.131-2.09-2.996 1.853.617a.74.74 0 0 0 .474 0l1.853-.617L12 17.098Z"/></svg>
